X: 24661
T: MacGregor Of Rora
R: waltz
M: 3/4
K: Amixolydian
A3/2B/ e2 e2|f3/2d/ e2 A2|A3/2B/ e2 e2|f3/2e/ d2 G2|
B/d3/2 B/d3/2 e3/2d/|B/A3/2 A/G3/2 A3/2B/|e3/2d/ B/d3/2 B/G3/2|A2 B2 A2:|
|:A3/2B/ e2 a2|g3/2e/ e3/2d/ B/A3/2|A3/2B/ e2 a2|g/f/e/d/ g2 G2|
[1 B/d3/2 B/d3/2 e3/2d/|B/A3/2 A/G3/2 A3/2B/|e3/2d/ B/d3/2 B/G3/2|A2 B2 A2:|
[2 B/d3/2 B/d3/2 ef/g/|B/A3/2 A/G3/2 g3/2f/|e3/2d/ B/d3/2 B/G3/2|A2 B2 A2||

